X:763
T:The Old Boot
C:William Porter, 1932?
S:Colin Hume's website,  colinhume.com  - chords can also be printed below the stave.
Q:3/8=120
M:6/8
R:Jig
L:1/8
N:Marjorie Heffer and William Porter - Maggot Pie, 1932
K:Gm
P:A
|: D | "Gm"G3 "D7"A3 | "Gm"B3- BAG | "F"A2A ABc | "Gm"B2B Bcd | "F/A"c2c cde | "Bb"d2c B2A |
"Gm"B3 "F"c3 | "Bb"d3- dcB | "Cm"c2c cde | "Gm"d2g G2A | "/D"B2d "D7"D=E^F | "Gm"G3- G2 :|
P:B
|: B/c/ | "Bb"d2B Bcd | "F"c2f F2c/d/ | "Cm"e2c cde | "Gm"d2g G2e/f/ |
"Cm"g2c "F"cde | "Bb"f3 "Gm"b3 | "D7"a2g ^f=ef | "Gm"g3- g2 :|

